X:1
T:An Bertha, Op.15
T:In der Ferne ("In the Distance")
T:3. In der Ferne (In the Distance) 
T:Peter Cornelius 
T:Peter Cornelius (trans. Constance Bache) 
T:An Bertha, Op.15
T:OpenScore (CC0)
T:OpenScore (CC0)
T:OpenScore (CC0)
C:Peter Cornelius
Z:Peter Cornelius
Z:OpenScore (CC0)
%%score 1 { ( 2 4 5 ) | ( 3 6 7 ) }
L:1/8
Q:1/4=100
M:2/4
K:C
V:1 treble nm="Gesang\nVoice"
V:2 treble nm="Pianoforte"
V:4 treble 
V:5 treble 
V:3 bass 
V:6 bass 
V:7 bass 
V:1
"^Allegretto moderato" z4 | z4 | z4 | z4 | z4 | z4 | z4 |[Q:1/4=90]"_poco cal." z4 | %8
w: ||||||||
w: ||||||||
 z2 z[Q:1/4=100]"^T" G | G A E e | d2 A G | G A E c | B2 F E | c B A E | ^F3 F | G A G e | e2 A A | %17
w: Die|Blüm- lein auf der|Hei- de, Sie|blü- hen mir zum|Lei- de, der|dich ver- las- sen|musst', Nur|wenn ver- eint wir|bei- de Uns|
w: The|flow- ers in the|field, dear, No|scent for me they|yield, dear, When|we are far a-|part, But|when my boughs con-|cealed, dear, I|
 f e d A | B2 g2 | f e B c | d ^d e2- | e a f A |[Q:1/4=90]"^poco cal.""^dim." d4 | %23
w: ru- hen Brust an|Brust, Dann|blü- hen mir zur|Lust die Blüm-|* lein auf der|Hei-|
w: clasp thee to my|heart, What|fra- grance they im-|part, The flow-|* ers in the|field,|
 c2 z2[Q:1/4=100]"_Tempo" | z4 | z4 | z4 | z4 | z4 | z4 | z4 | z2 z G | G A E e | d2 A G | %34
w: de.||||||||Die|Vö- ge- lein im|Ha- ge, Sie|
w: dear.||||||||The|bird- lings in the|he- dges Sing|
 G A E c | B2 F E | c B A E | ^F3 F | G A G e | e2 A A | f e d A | B2 g2 | f e B c | d ^d e2- | %44
w: sin- gen lau- ter|Kla- ge, Weil|du, mein Lieb, nicht|hie; doch|ei- ne Wun- der-|sa- ge, wenn|Gott dich mir ver-|lieh, Voll|Ju- bel sin- gen|sie, die Vög-|
w: on- ly mourn- ful|pled- ges, When|far thou wan- der-|est; When|by the wood- land's|e- dges, I|hold thee to my|breast, Their|joy's in song ex-|pressed,  The bird-|
 e a f A |[Q:1/4=90]"^poco cal.""^dim." d4 | c2 z2[Q:1/4=100]"_Tempo" | z4 | z4 | %49
w: * lein in dem|Ha|ge.|||
w: * lings in the|he-|dges.|||
[Q:1/4=90]"^rit." z2[Q:1/4=80]"^T\n" z _B |[Q:1/4=100]"^Tempo"[Q:1/4=100]"_Tempo" =B3 e | ^d2 ^c2 | %52
w: Die|Stern' auf|Him- mels-|
w: The|stars that|night skies|
 ^f4 | B z B2 | B3 g | ^f2 e2 | ^d4 | B[Q:1/4=95]"^poco rit." z ^c2 | %58
w: we-|gen Führ'n|Lieb' der|Lieb' ent|ge-|gen, dann,|
w: co-|ver Send|love to|greet the|lo-|ver, The|
[Q:1/4=100]"^Tempo"!p! B A ^F ^c | B2 e2 |[Q:1/4=105]"^poco string." =c d A d | c A f2 | %62
w: Hei- de- blü- me-|lein, Dann|blüht ihr mir zum|Se- gen, Dann,|
w: flow'rs then give de-|lights, And|bless- ings o'er me|ho- ver, Then|
 e d (A/d) c/ | B d g2- | g e B c | d ^d e2- | e[Q:1/4=100]"^T" a[Q:1/4=97]"^T" f[Q:1/4=95]"^T" A | %67
w: Vög- lein, stim- * met|ein, dass strah-|* lend schau- en|drein die Stern'|_ auf Him- mels-|
w: song of birds * u-|nites With all|_ the glow- ing|lights Of hea-|* vens ar- ching|
[Q:1/4=90]"^poco cal.""^dim." d4 | c2 z2[Q:1/4=100]"_Tempo" | z4 | z2 z d | g4- || %72
w: we-|gen,||die|Stern'|
w: o-|ver,||of|hea-|
[M:3/4] g3 e c d ||[M:2/4] e4- | e2 c2 | z4 | z4 |] %77
w: _ auf Him- mels-|we-|* gen.|||
w: * vens ar- ching|o-|* ver.|||
V:2
 z!p! (ecE | (A2 G2-)) | G(cAC | (([A,B,-F]2 [^G,B,E]2-))) | ([G,B,E]2 [=G,^CA]2) | %5
"^ten." (!tenuto!d3 B | A^FDB) |"_dim." (A2 G2) | z (!tenuto![B,FG]2 !tenuto![B,FG]) | (.G.A.B.c) | %10
 (cB)(.A.G) | (.G.A.B.A) | (A^G)(.F.E) | (.^F.^G.A.e) | (e^d)!>(!(.c.B)!>)! |!p! (.B.c.B._B) | %16
 (.A._B.A.A) |"_legato" ([A=B]!<(![A^c][Ad][=cda])!<)! |!mf! (ag fe) | (dc Bc) | (d^d e2-) | %21
 e(ea=c) | ([Ad][Ge]([Ff])[Gf]/) z/ | z!p! (ecE | (A2 G2-)) | G(cAC | ([A,B,-F]2 [^G,B,E]2-)) | %27
 ((([G,B,E]2 [=G,^CA]2))) |"^ten." (!tenuto!d3 B | A^FDB) | (A2 G2) | z [B,FG]2 [B,FG] | %32
 (.G.A.B.c) | (cB)(.A.G) | (.G.A.B.A) | (A^G)(.F.E) | (.^F.^G.A!<(!.e) | (e!<)!^d!>(!cB)!>)! | %38
!p! (.B.c.B._B) | (.A._B.A.A) |!<(! (=B^cd!<)!a) |!mf! (ag) ([Acf][GBe] | [FAd][EGc][DGB][EGc]) | %43
 ([Gd][F^d] e2-) | (eea=c) | ([Ad][Ge]([Ff])[Gf]/) z/ | z!f! ([Ece][Ec][CE] | %47
 !>![A,FA]2) !>![G,EG]2 | z!p! ([ce][Ec]E) |"^rit." ([_B,EA]2 [B,EG]2) | [=B,E^G]3 [B,EB]- | %51
 [B,EB] [^DAB]2 [^CAB]- | [CAB] [B,^FB]2 [B,EB]- | [B,EB] [B,^DB]2 [B,D^FB] |!p! B3 [B,GB] | %55
 [B,^FB] [B,FB]2 [B,EB]- | [B,EB] [B,^DB]2 [B,^CB]- | [B,CB][B,EB] !arpeggio![^A,E^c]2 | %58
!p!"^Tempo" !arpeggio![=A,EB]2 !arpeggio![A,^DB]2 | !arpeggio![^G,EB]2 [E^Ge]2 | (=cdAd) | %61
 (cA) [Acf]2 | ([Ace][Acd] A/dc/) |"_cresc." ([DGB][FBd] g2) | ([eg][ce]) ([DB][Fc]) | %65
!mf! [Bd][AB^d] ([^GBe-]2 | ([Ae])[A^ca][Adf][A=ce]) | d4 | [EGc]!f!!>![EGe]!>![EGc][E,CE] | %69
 (((!>![A,FA]2 (((!>![G,CG]2))) |!>(! [A,D^F]))) [A,DF]2!>)! [A,DF] | [=F,D=F] [F,DF]2 [F,DF] || %72
[M:3/4] [E,CE]2 z2 z!p! d ||[M:2/4]!<(! ([Be][^c^f][A^d]!<)![dfb]) | %74
"_cresc." [Beb]2"_ten." ([c-e-^fc'-]2 |!>(! [cegc']2) (a>!>)!g) |!p! !arpeggio![Gceg]4 |] %77
V:3
 z (ECE, | (A,2 G,2-)) | G,(CA,C, | (D,2 E,2-)) | E,(F,E,A,,) | D,4 | !arpeggio!^F,4 | %7
 (!tenuto!G,,!tenuto!A,,!tenuto!D,,!tenuto!E,) | (D,2 G,,G,) | (.G,.A,.B,.C) | %10
 (!arpeggio!CB,)(.A,.G,) | (.G,.A,.B,.A,) | (DB,)(.A,.^G,) | (.^F,.^G,.A,.A,) | %14
 A,2 (.[^D,A,].[D,A,]) | (.[E,G,].[E,A,].[E,G,].[D,G,]) | (.[^C,G,].[D,G,].[C,G,].[C,A,]) | %17
 ([D,B,][E,^C][F,D][^F,=CD]) | [G,B,D]2 [G,,,G,,]2 | ([G,,G,]3 [C,C]) | %20
 ([B,,B,][A,,A,] [^G,,^G,][^F,,^F,]/[G,,G,]/ | [A,,A,])([=G,,=G,][=F,,=F,][^F,,^F,]) | %22
"^poco cal." (!arpeggio!CB,A,B,) | z (ECE, | (A,2 G,2-)) | G,(CA,C, | [D,F,]2 E,2-) | E,(F,E,A,,) | %28
 D,4 | !arpeggio!^F,4 | G,,!>!A,,!>!D,,!>!E, | z2 z G, | (.G,.A,.B,.C) | %33
 (!arpeggio!CB,)(!arpeggio!.A,.G,) | (.G,.A,.B,.A,) | (DB,)(.A,.^G,) | (.^F,.^G,.A,.A,) | %37
 A,2 A,A, | (.G,.A,.G,.G,) | G,G,G,A, | (B,^CDD) | [G,B,D]2 [G,,,G,,]2 | [G,,G,]3 [C,C] | %43
 ([B,,B,][A,,A,] [^G,,^G,][^F,,^F,]/[G,,G,]/ | [A,,A,])([=G,,=G,][=F,,=F,][^F,,^F,]) | %45
"^poco cal." (CB,A,B,) | z [C,G,C][C,G,C][C,,G,,C,] | !>![F,,C,]2 !>![C,,G,,C,]2 | %48
[K:treble] z (_B_B,[K:bass][C,_B,]) | [C,,C,]2 [C,,C,]2 | ([B,,,B,,][^C,,^C,][^G,,,^G,,][G,,^G,]) | %51
 ([^F,,^F,]2 [E,,E,]2 | [^D,,^D,]2 [^C,,^C,]2 | [B,,,B,,]2 [A,,,A,,]2) | %54
 ([=G,,,=G,,][A,,,A,,][E,,,E,,][E,,E,]) | ([D,,D,]2 [C,,C,]2 | [B,,,B,,]2 [A,,,A,,]2 | %57
 [^G,,,^G,,]2"^poco rit." !>![=G,,,=G,,]2 | !arpeggio![^F,,,^F,,]2 [B,,,B,,]2) | (B,,^C,^G,,E,) | %60
"^poco string." ([E,_B,]2 [E,C][E,B,]) | (A,C) ([D,,D,][^D,,^D,]) | %62
 ([E,,E,][F,,F,][^F,,^F,][D,,D,]) | ([G,,,G,,][^G,,,^G,,][A,,,A,,][B,,,B,,]) | %64
 ([C,,C,][E,,E,][F,,F,][_A,,_A,]) | ([G,,G,][F,,F,][E,,E,][D,,D,]) | %66
 ([^C,,^C,][A,,,A,,][D,,D,][E,,E,]) |"^poco cal." ([F,,F,]2 [G,,G,]2 | [C,C]) z z [C,,G,,] | %69
 (G,,A,,E,,E,) | (D,2 A,,2) | (B,,3 A,,/B,,/) ||[M:3/4] [C,,C,]2 z2 z[K:treble] A || %73
[M:2/4] (^GA^F[AB]) | [E^G]2[K:bass] ((!tenuto![A,E-^F]2 | !tenuto![G,CEG]2)) !arpeggio![G,D=F]2 | %76
 !arpeggio![G,CE]4 |] %77
V:4
 x4 | x4 | x4 | x4 | x4 | ^F4 | C4 | [B,=F]4 | x4 | EEEE | D2 DD | EEEE | E2 DE | EEEE | ^F2 FF | %15
 EEEE | EEEE | x4 | [Bd]2 [Ac][GB] | [FA][EG] [DG][EG] | GF B-A/B/ | [Ec][EA^c][Ad][DA] | x4 | x4 | %24
 x4 | x4 | x4 | x4 | [=C-^F]4 | C4 | [B,=F]4 | x4 | EEEE | D2 DD | EEEE | E2 DE | EEEE | ^F2 FF | %38
 EEEE | EEEE | AAA[=cd] | [Bd]2 x2 | x4 | x2 B-A/B/ | [Ec][EA^c][Ad][DA] | x4 | x4 | x4 | x4 | x4 | %50
 x4 | x4 | x4 | x4 | (E^FG) x | x4 | x4 | x4 | x4 | x4 | =G2 G2 | (AF) x2 | x2 D[D^F] | x2 F2 | %64
 G2 x2 | x4 | x4 | (c2 B2) | x4 | x4 | x4 | x4 ||[M:3/4] x6 ||[M:2/4] x4 | x4 | x2 [B=f]2 | x4 |] %77
V:5
 x4 | x4 | x4 | x4 | x4 | =C4- | x4 | x4 | x4 | x4 | x4 | x4 | x4 | x4 | x4 | x4 | x4 | x4 | x4 | %19
 x4 | x2 E2- | x4 | x4 | x4 | x4 | x4 | x4 | x4 | x4 | x4 | x4 | x4 | x4 | x4 | x4 | x4 | x4 | x4 | %38
 x4 | x4 | x4 | x4 | x4 | x2 E2- | x4 | x4 | x4 | x4 | x4 | x4 | x4 | x4 | x4 | x4 | B,3 x | x4 | %56
 x4 | x4 | x4 | x4 | x4 | x4 | x4 | x2 cd | x4 | x4 | x4 | A_AGF | x4 | x4 | x4 | x4 || %72
[M:3/4] x6 ||[M:2/4] x4 | x4 | x4 | x4 |] %77
V:6
 x4 | x4 | x4 | x4 | x4 | D,,4- | D,,4 | D, x3 | x4 | C,C,C,C, | G,,2 G,,2 | C,2 C,C, | E,2 E,E, | %13
 A,,B,,C,C, | B,,2 x2 | x4 | x4 | x4 | x4 | x4 | x4 | x4 | G,,G,G,G,/ z/ | x4 | x4 | x4 | x4 | x4 | %28
 D,,4 | D,,4 | D, x3 | (!>!D,2 G,,)G, | C,C,C,C, | G,,2 G,,2 | C,C,C,C, | E,2 E,E, | A,,B,,C,C, | %37
 B,,2 ^D,D, | E,E,E,D, | (.^C,.D,.C,.C,) | D,E,F,[^F,=C] | x4 | x4 | x4 | x4 | G,,G,G,G,/ z/ | x4 | %47
 x4 |[K:treble] x3[K:bass] x | x4 | x4 | x4 | x4 | x4 | x4 | x4 | x4 | x4 | x4 | E,,4 | x4 | %61
 F,2 x2 | x4 | x4 | x4 | x4 | x4 | x4 | x4 | C,,4- | C,,4- | C,,4 ||[M:3/4] x5[K:treble] F || %73
[M:2/4] E2 x2 | x2[K:bass] x2 | z2 !arpeggio!G,,2 | !arpeggio![C,,C,]4 |] %77
V:7
 x4 | x4 | x4 | x4 | x4 | x4 | x4 | x4 | x4 | x4 | x4 | x4 | x4 | x4 | x4 | x4 | x4 | x4 | x4 | %19
 x4 | x4 | x4 | x4 | x4 | x4 | x4 | x4 | x4 | x4 | x4 | x4 | x2 G,,2 | x4 | x4 | x4 | x4 | x4 | %37
 x4 | x4 | x4 | x4 | x4 | x4 | x4 | x4 | x4 | x4 | x4 |[K:treble] x3[K:bass] x | x4 | x4 | x4 | %52
 x4 | x4 | x4 | x4 | x4 | x4 | x4 | x4 | x4 | x4 | x4 | x4 | x4 | x4 | x4 | x4 | x4 | x4 | x4 | %71
 x4 ||[M:3/4] x5[K:treble] x ||[M:2/4] x4 | x2[K:bass] x2 | x4 | x4 |] %77

